X:163
T:Last Night's Fun  
B:CRE2.107 (SÃÂÃÂÃÂÃÂºgradh na hOÃÂÃÂÃÂÃÂ­che ArÃÂÃÂÃÂÃÂ©ir)
F:file ID: cre.2/163last_n
L:1/8
M:9/8
R:slip jig
Q:160
K:D
E2E B2A Bcd|E2E BAF A2F|E2E B2A Bcd|
[1 edB BAF A2F:|2 edB BAF A3||d2d fdf Bcd|
c2c ecA ABc|d2d fef Bcd|edB BAF A2F|
d2d fdf Bcd|c2c ecA ABc|d3 fef Bcd|\
edB BAF A2F||

%%%

